svg/Tango/actions/media-playback-stop.svg

<?xml version="1.0" encoding="UTF-8" standalone="no"?>
<!-- Created with Inkscape (http://www.inkscape.org/) -->
<svg
   xmlns:dc="http://purl.org/dc/elements/1.1/"
   xmlns:cc="http://creativecommons.org/ns#"
   xmlns:rdf="http://www.w3.org/1999/02/22-rdf-syntax-ns#"
   xmlns:svg="http://www.w3.org/2000/svg"
   xmlns="http://www.w3.org/2000/svg"
   xmlns:xlink="http://www.w3.org/1999/xlink"
   xmlns:sodipodi="http://sodipodi.sourceforge.net/DTD/sodipodi-0.dtd"
   xmlns:inkscape="http://www.inkscape.org/namespaces/inkscape"
   width="48"
   height="48"
   id="svg1307"
   sodipodi:version="0.32"
   inkscape:version="0.46"
   sodipodi:docbase="/home/jimmac/src/cvs/tango-icon-theme/scalable/actions"
   sodipodi:docname="media-playback-stop.svg"
   inkscape:export-filename="/home/lapo/Desktop/Grafica/Icone/media-actions-outlines.png"
   inkscape:export-xdpi="90"
   inkscape:export-ydpi="90"
   version="1.0"
   inkscape:r_cx="true"
   inkscape:r_cy="true"
   inkscape:output_extension="org.inkscape.output.svg.inkscape">
  <defs
     id="defs1309">
    <inkscape:perspective
       sodipodi:type="inkscape:persp3d"
       inkscape:vp_x="0 : 24 : 1"
       inkscape:vp_y="0 : 1000 : 0"
       inkscape:vp_z="48 : 24 : 1"
       inkscape:persp3d-origin="24 : 16 : 1"
       id="perspective82" />
    <linearGradient
       id="linearGradient2817">
      <stop
         style="stop-color:#000000;stop-opacity:1;"
         offset="0"
         id="stop2819" />
      <stop
         style="stop-color:#ffffff;stop-opacity:0.48453608;"
         offset="1"
         id="stop2821" />
    </linearGradient>
    <linearGradient
       id="linearGradient2584">
      <stop
         style="stop-color:#000000;stop-opacity:1;"
         offset="0"
         id="stop2586" />
      <stop
         style="stop-color:#ffffff;stop-opacity:0;"
         offset="1"
         id="stop2588" />
    </linearGradient>
    <linearGradient
       id="linearGradient2697">
      <stop
         id="stop2699"
         offset="0"
         style="stop-color:#babdb6" />
      <stop
         id="stop2701"
         offset="1"
         style="stop-color:#555753" />
    </linearGradient>
    <linearGradient
       id="linearGradient2679"
       inkscape:collect="always">
      <stop
         id="stop2681"
         offset="0"
         style="stop-color:#f7f7f7;stop-opacity:1" />
      <stop
         id="stop2683"
         offset="1"
         style="stop-color:#ccd0c7;stop-opacity:1" />
    </linearGradient>
    <linearGradient
       inkscape:collect="always"
       id="linearGradient3081">
      <stop
         style="stop-color:#ffffff;stop-opacity:1;"
         offset="0"
         id="stop3083" />
      <stop
         style="stop-color:#ffffff;stop-opacity:0;"
         offset="1"
         id="stop3085" />
    </linearGradient>
    <linearGradient
       inkscape:collect="always"
       id="linearGradient8662">
      <stop
         style="stop-color:#000000;stop-opacity:1;"
         offset="0"
         id="stop8664" />
      <stop
         style="stop-color:#000000;stop-opacity:0;"
         offset="1"
         id="stop8666" />
    </linearGradient>
    <radialGradient
       inkscape:collect="always"
       xlink:href="#linearGradient2679"
       id="radialGradient2112"
       gradientUnits="userSpaceOnUse"
       gradientTransform="matrix(3.562309e-6,-1.07205,1.992104,-1.250658e-6,-42.61165,283.7891)"
       cx="169.77171"
       cy="100.20107"
       fx="169.77171"
       fy="100.20107"
       r="11" />
    <linearGradient
       inkscape:collect="always"
       xlink:href="#linearGradient2697"
       id="linearGradient2122"
       gradientUnits="userSpaceOnUse"
       gradientTransform="translate(-12,0)"
       x1="169"
       y1="110.33805"
       x2="169"
       y2="93.204849" />
    <linearGradient
       inkscape:collect="always"
       xlink:href="#linearGradient3081"
       id="linearGradient2124"
       gradientUnits="userSpaceOnUse"
       gradientTransform="translate(133,70.99999)"
       x1="15.089521"
       y1="15.291994"
       x2="14"
       y2="52.510574" />
    <radialGradient
       inkscape:collect="always"
       xlink:href="#linearGradient8662"
       id="radialGradient2137"
       gradientUnits="userSpaceOnUse"
       gradientTransform="matrix(1,0,0,0.536723,4.473733e-13,16.87306)"
       cx="24.837126"
       cy="36.421127"
       fx="24.837126"
       fy="36.421127"
       r="15.644737" />
    <radialGradient
       inkscape:collect="always"
       xlink:href="#linearGradient8662"
       id="radialGradient2139"
       gradientUnits="userSpaceOnUse"
       gradientTransform="matrix(1,0,0,0.536723,-1.416456e-12,16.87306)"
       cx="24.837126"
       cy="36.421127"
       fx="24.837126"
       fy="36.421127"
       r="15.644737" />
    <radialGradient
       inkscape:collect="always"
       xlink:href="#linearGradient8662"
       id="radialGradient2725"
       gradientUnits="userSpaceOnUse"
       gradientTransform="matrix(1,0,0,0.536723,4.526469e-13,16.87306)"
       cx="24.837126"
       cy="36.421127"
       fx="24.837126"
       fy="36.421127"
       r="15.644737" />
    <radialGradient
       inkscape:collect="always"
       xlink:href="#linearGradient8662"
       id="radialGradient2727"
       gradientUnits="userSpaceOnUse"
       gradientTransform="matrix(1,0,0,0.536723,-1.432388e-12,16.87306)"
       cx="24.837126"
       cy="36.421127"
       fx="24.837126"
       fy="36.421127"
       r="15.644737" />
    <radialGradient
       inkscape:collect="always"
       xlink:href="#linearGradient2679"
       id="radialGradient2729"
       gradientUnits="userSpaceOnUse"
       gradientTransform="matrix(3.562309e-6,-1.07205,1.992104,-1.250658e-6,-42.61165,283.7891)"
       cx="169.77171"
       cy="100.20107"
       fx="169.77171"
       fy="100.20107"
       r="11" />
    <linearGradient
       inkscape:collect="always"
       xlink:href="#linearGradient2697"
       id="linearGradient2731"
       gradientUnits="userSpaceOnUse"
       gradientTransform="translate(-12,0)"
       x1="169"
       y1="110.33805"
       x2="169"
       y2="93.204849" />
    <linearGradient
       inkscape:collect="always"
       xlink:href="#linearGradient3081"
       id="linearGradient2733"
       gradientUnits="userSpaceOnUse"
       gradientTransform="translate(133,70.99999)"
       x1="15.089521"
       y1="15.291994"
       x2="14"
       y2="52.510574" />
    <radialGradient
       inkscape:collect="always"
       xlink:href="#linearGradient8662"
       id="radialGradient2745"
       gradientUnits="userSpaceOnUse"
       gradientTransform="matrix(1,0,0,0.536723,4.579205e-13,16.87306)"
       cx="24.837126"
       cy="36.421127"
       fx="24.837126"
       fy="36.421127"
       r="15.644737" />
    <radialGradient
       inkscape:collect="always"
       xlink:href="#linearGradient8662"
       id="radialGradient2747"
       gradientUnits="userSpaceOnUse"
       gradientTransform="matrix(1,0,0,0.536723,-1.44832e-12,16.87306)"
       cx="24.837126"
       cy="36.421127"
       fx="24.837126"
       fy="36.421127"
       r="15.644737" />
    <radialGradient
       inkscape:collect="always"
       xlink:href="#linearGradient2679"
       id="radialGradient2749"
       gradientUnits="userSpaceOnUse"
       gradientTransform="matrix(3.562309e-6,-1.07205,1.992104,-1.250658e-6,-42.61165,283.7891)"
       cx="169.77171"
       cy="100.20107"
       fx="169.77171"
       fy="100.20107"
       r="11" />
    <linearGradient
       inkscape:collect="always"
       xlink:href="#linearGradient2697"
       id="linearGradient2751"
       gradientUnits="userSpaceOnUse"
       gradientTransform="translate(-12,0)"
       x1="169"
       y1="110.33805"
       x2="169"
       y2="93.204849" />
    <linearGradient
       inkscape:collect="always"
       xlink:href="#linearGradient3081"
       id="linearGradient2753"
       gradientUnits="userSpaceOnUse"
       gradientTransform="translate(133,70.99999)"
       x1="15.089521"
       y1="15.291994"
       x2="14"
       y2="52.510574" />
    <radialGradient
       inkscape:collect="always"
       xlink:href="#linearGradient2679"
       id="radialGradient2791"
       gradientUnits="userSpaceOnUse"
       gradientTransform="matrix(3.562309e-6,-1.07205,1.992104,-1.250658e-6,-42.61165,283.7891)"
       cx="169.77171"
       cy="100.20107"
       fx="169.77171"
       fy="100.20107"
       r="11" />
    <linearGradient
       inkscape:collect="always"
       xlink:href="#linearGradient2697"
       id="linearGradient2793"
       gradientUnits="userSpaceOnUse"
       gradientTransform="translate(-12,0)"
       x1="169"
       y1="110.33805"
       x2="169"
       y2="93.204849" />
    <linearGradient
       inkscape:collect="always"
       xlink:href="#linearGradient2697"
       id="linearGradient2795"
       gradientUnits="userSpaceOnUse"
       gradientTransform="translate(-12,0)"
       x1="169"
       y1="110.33805"
       x2="169"
       y2="93.204849" />
    <linearGradient
       inkscape:collect="always"
       xlink:href="#linearGradient3081"
       id="linearGradient2797"
       gradientUnits="userSpaceOnUse"
       gradientTransform="translate(133,70.99999)"
       x1="15.089521"
       y1="15.291994"
       x2="14"
       y2="52.510574" />
    <linearGradient
       inkscape:collect="always"
       xlink:href="#linearGradient3081"
       id="linearGradient2800"
       gradientUnits="userSpaceOnUse"
       gradientTransform="translate(-4e-4,-9.426e-2)"
       x1="15.089521"
       y1="15.291994"
       x2="14"
       y2="52.510574" />
    <linearGradient
       inkscape:collect="always"
       xlink:href="#linearGradient2697"
       id="linearGradient2803"
       gradientUnits="userSpaceOnUse"
       gradientTransform="matrix(1,0,0,1.004384,-145.0004,-71.4625)"
       x1="169"
       y1="110.33805"
       x2="169"
       y2="93.204849" />
    <linearGradient
       inkscape:collect="always"
       xlink:href="#linearGradient2697"
       id="linearGradient2806"
       gradientUnits="userSpaceOnUse"
       gradientTransform="translate(-145.0004,-97.0943)"
       x1="169"
       y1="110.33805"
       x2="169"
       y2="93.204849" />
    <radialGradient
       inkscape:collect="always"
       xlink:href="#linearGradient2679"
       id="radialGradient2809"
       gradientUnits="userSpaceOnUse"
       gradientTransform="matrix(3.562309e-6,-1.07205,1.992104,-1.250658e-6,-175.6121,212.6949)"
       cx="169.77171"
       cy="100.20107"
       fx="169.77171"
       fy="100.20107"
       r="11" />
    <linearGradient
       inkscape:collect="always"
       xlink:href="#linearGradient2817"
       id="linearGradient2823"
       gradientUnits="userSpaceOnUse"
       gradientTransform="matrix(1.103262,0,0,1.054917,-163.1228,-76.31138)"
       x1="174.83363"
       y1="84.263489"
       x2="174.74524"
       y2="105.49083" />
    <linearGradient
       inkscape:collect="always"
       xlink:href="#linearGradient3081"
       id="linearGradient2825"
       gradientUnits="userSpaceOnUse"
       gradientTransform="translate(-4e-4,-26.09426)"
       x1="15.089521"
       y1="15.291994"
       x2="14"
       y2="52.510574" />
    <radialGradient
       inkscape:collect="always"
       xlink:href="#linearGradient2679"
       id="radialGradient2831"
       gradientUnits="userSpaceOnUse"
       gradientTransform="matrix(3.562309e-6,-1.07205,1.992104,-1.250658e-6,-175.6121,186.6949)"
       cx="169.77171"
       cy="100.20107"
       fx="169.77171"
       fy="100.20107"
       r="11" />
    <linearGradient
       inkscape:collect="always"
       xlink:href="#linearGradient2817"
       id="linearGradient2858"
       gradientUnits="userSpaceOnUse"
       gradientTransform="matrix(1.103262,0,0,1.054917,-163.1228,-76.31138)"
       x1="174.83363"
       y1="84.263489"
       x2="174.74524"
       y2="105.49083" />
    <radialGradient
       inkscape:collect="always"
       xlink:href="#linearGradient2679"
       id="radialGradient2860"
       gradientUnits="userSpaceOnUse"
       gradientTransform="matrix(3.562309e-6,-1.07205,1.992104,-1.250658e-6,-175.6121,212.6949)"
       cx="169.77171"
       cy="100.20107"
       fx="169.77171"
       fy="100.20107"
       r="11" />
    <linearGradient
       inkscape:collect="always"
       xlink:href="#linearGradient2697"
       id="linearGradient2862"
       gradientUnits="userSpaceOnUse"
       gradientTransform="matrix(1,0,0,1.004384,-145.0004,-71.4625)"
       x1="169"
       y1="110.33805"
       x2="169"
       y2="93.204849" />
    <linearGradient
       inkscape:collect="always"
       xlink:href="#linearGradient3081"
       id="linearGradient2864"
       gradientUnits="userSpaceOnUse"
       gradientTransform="translate(-4e-4,-9.426e-2)"
       x1="15.089521"
       y1="15.291994"
       x2="14"
       y2="52.510574" />
    <linearGradient
       inkscape:collect="always"
       xlink:href="#linearGradient3081"
       id="linearGradient3421"
       gradientUnits="userSpaceOnUse"
       gradientTransform="matrix(3.000198,0,0,1,-67.006,-9.426e-2)"
       x1="15.089521"
       y1="15.291994"
       x2="14"
       y2="52.510574" />
    <linearGradient
       inkscape:collect="always"
       xlink:href="#linearGradient2697"
       id="linearGradient3424"
       gradientUnits="userSpaceOnUse"
       gradientTransform="matrix(2.498884,0,0,1.004384,-414.0618,-71.4625)"
       x1="169"
       y1="110.33805"
       x2="169"
       y2="93.204849" />
    <radialGradient
       inkscape:collect="always"
       xlink:href="#linearGradient2679"
       id="radialGradient3427"
       gradientUnits="userSpaceOnUse"
       gradientTransform="matrix(8.905772e-6,-1.07205,4.98026,-1.250658e-6,-490.7792,212.6949)"
       cx="169.77171"
       cy="100.20107"
       fx="169.77171"
       fy="100.20107"
       r="11" />
    <linearGradient
       inkscape:collect="always"
       xlink:href="#linearGradient2817"
       id="linearGradient3430"
       gradientUnits="userSpaceOnUse"
       gradientTransform="matrix(2.624525,0,0,1.054917,-436.1019,-76.31138)"
       x1="174.83363"
       y1="84.263489"
       x2="174.74524"
       y2="105.49083" />
  </defs>
  <sodipodi:namedview
     id="base"
     pagecolor="#ffffff"
     bordercolor="#666666"
     borderopacity="0.19607843"
     inkscape:pageopacity="0.0"
     inkscape:pageshadow="2"
     inkscape:zoom="4"
     inkscape:cx="-0.153018"
     inkscape:cy="25.719637"
     inkscape:current-layer="layer1"
     showgrid="false"
     inkscape:grid-bbox="true"
     inkscape:document-units="px"
     inkscape:grid-points="true"
     fill="#fcaf3e"
     showguides="false"
     inkscape:guide-bbox="true"
     guidetolerance="1px"
     stroke="#729fcf"
     inkscape:window-width="872"
     inkscape:window-height="688"
     inkscape:window-x="0"
     inkscape:window-y="160"
     showborder="true"
     inkscape:showpageshadow="false">
    <sodipodi:guide
       orientation="horizontal"
       position="38.996647"
       id="guide2194" />
    <sodipodi:guide
       orientation="horizontal"
       position="9.0140845"
       id="guide2196" />
    <sodipodi:guide
       orientation="vertical"
       position="9.0140845"
       id="guide2198" />
    <sodipodi:guide
       orientation="vertical"
       position="38.975184"
       id="guide2200" />
    <sodipodi:guide
       orientation="horizontal"
       position="22.988281"
       id="guide2202" />
    <sodipodi:guide
       orientation="vertical"
       position="23.908786"
       id="guide2204" />
    <sodipodi:guide
       orientation="vertical"
       position="157.99417"
       id="guide4332" />
    <sodipodi:guide
       orientation="horizontal"
       position="-36.062446"
       id="guide4334" />
    <sodipodi:guide
       orientation="horizontal"
       position="-58.02695"
       id="guide4336" />
    <sodipodi:guide
       orientation="vertical"
       position="180.00287"
       id="guide4338" />
    <sodipodi:guide
       orientation="vertical"
       position="107.92217"
       id="guide4417" />
    <sodipodi:guide
       orientation="vertical"
       position="129.93087"
       id="guide4419" />
    <sodipodi:guide
       orientation="horizontal"
       position="19.996875"
       id="guide5106" />
    <sodipodi:guide
       orientation="horizontal"
       position="63.039674"
       id="guide5119" />
    <sodipodi:guide
       orientation="horizontal"
       position="49.066305"
       id="guide5121" />
    <sodipodi:guide
       orientation="horizontal"
       position="-86.007168"
       id="guide5307" />
    <sodipodi:guide
       orientation="horizontal"
       position="-108.09009"
       id="guide5309" />
    <sodipodi:guide
       orientation="horizontal"
       position="-100.15429"
       id="guide3111" />
    <inkscape:grid
       id="GridFromPre046Settings"
       type="xygrid"
       originx="0px"
       originy="0px"
       spacingx="0.5px"
       spacingy="0.5px"
       color="#0000ff"
       empcolor="#0000ff"
       opacity="0.2"
       empopacity="0.4"
       empspacing="2" />
  </sodipodi:namedview>
  <metadata
     id="metadata1312">
    <rdf:RDF>
      <cc:Work
         rdf:about="">
        <dc:format>image/svg+xml</dc:format>
        <dc:type
           rdf:resource="http://purl.org/dc/dcmitype/StillImage" />
        <dc:title>Media Playback Pause</dc:title>
        <dc:creator>
          <cc:Agent>
            <dc:title>Lapo Calamandrei</dc:title>
          </cc:Agent>
        </dc:creator>
        <cc:license
           rdf:resource="http://creativecommons.org/licenses/publicdomain/" />
        <dc:subject>
          <rdf:Bag>
            <rdf:li>media</rdf:li>
            <rdf:li>stop</rdf:li>
            <rdf:li>playback</rdf:li>
            <rdf:li>video</rdf:li>
            <rdf:li>music</rdf:li>
          </rdf:Bag>
        </dc:subject>
        <dc:contributor>
          <cc:Agent>
            <dc:title>Jakub Steiner</dc:title>
          </cc:Agent>
        </dc:contributor>
      </cc:Work>
      <cc:License
         rdf:about="http://creativecommons.org/licenses/publicdomain/">
        <cc:permits
           rdf:resource="http://creativecommons.org/ns#Reproduction" />
        <cc:permits
           rdf:resource="http://creativecommons.org/ns#Distribution" />
        <cc:permits
           rdf:resource="http://creativecommons.org/ns#DerivativeWorks" />
      </cc:License>
    </rdf:RDF>
  </metadata>
  <g
     id="layer1"
     inkscape:label="Layer 1"
     inkscape:groupmode="layer"
     style="display:inline"
     inkscape:r_cx="true"
     inkscape:r_cy="true">
    <path
       style="opacity:0.15;color:#000000;fill:none;fill-opacity:1;fill-rule:evenodd;stroke:url(#linearGradient3430);stroke-width:1.99999952;stroke-linecap:square;stroke-linejoin:round;marker:none;marker-start:none;marker-mid:none;marker-end:none;stroke-miterlimit:4;stroke-dasharray:none;stroke-dashoffset:0;stroke-opacity:1;visibility:visible;display:inline;overflow:visible"
       d="M 14.00382,12.829103 L 14.00382,34.982359 L 35.000004,34.982359 L 35.000004,12.829103 L 14.00382,12.829103 z "
       id="path2815"
       inkscape:r_cx="true"
       inkscape:r_cy="true" />
    <path
       inkscape:r_cy="true"
       inkscape:r_cx="true"
       style="color:#000000;fill:url(#radialGradient3427);fill-opacity:1;fill-rule:evenodd;stroke:none;stroke-width:1;stroke-linecap:square;stroke-linejoin:miter;marker:none;marker-start:none;marker-mid:none;marker-end:none;stroke-miterlimit:4;stroke-dasharray:none;stroke-dashoffset:0;stroke-opacity:1;visibility:visible;display:inline;overflow:visible"
       d="M 14.5,13.40575 L 14.5,34.40575 L 34.5,34.40575 L 34.5,13.40575 L 14.5,13.40575 z "
       id="path2827" />
    <path
       inkscape:r_cy="true"
       inkscape:r_cx="true"
       id="path2762"
       d="M 14.496737,13.407946 L 14.496737,34.50001 L 34.487808,34.50001 L 34.487808,13.407946 L 14.496737,13.407946 z "
       style="color:#000000;fill:none;fill-opacity:1;fill-rule:evenodd;stroke:url(#linearGradient3424);stroke-width:0.99999952;stroke-linecap:square;stroke-linejoin:round;marker:none;marker-start:none;marker-mid:none;marker-end:none;stroke-miterlimit:4;stroke-dasharray:none;stroke-dashoffset:0;stroke-opacity:1;visibility:visible;display:inline;overflow:visible" />
    <path
       inkscape:r_cy="true"
       inkscape:r_cx="true"
       style="color:#000000;fill:none;fill-opacity:1;fill-rule:evenodd;stroke:url(#linearGradient3421);stroke-width:0.99999976;stroke-linecap:square;stroke-linejoin:miter;marker:none;marker-start:none;marker-mid:none;marker-end:none;stroke-miterlimit:4;stroke-dasharray:none;stroke-dashoffset:0;stroke-opacity:1;visibility:visible;display:inline;overflow:visible"
       d="M 15.499412,14.40575 L 15.499412,33.40575 L 33.500595,33.40575 L 33.500595,14.40575 L 15.499412,14.40575 z "
       id="path2811" />
    <path
       style="opacity:0.5;color:#000000;fill:#f7f7f7;fill-opacity:1;fill-rule:nonzero;stroke:none;stroke-width:2;stroke-linecap:round;stroke-linejoin:round;marker:none;marker-start:none;marker-mid:none;marker-end:none;stroke-miterlimit:10;stroke-dasharray:none;stroke-dashoffset:0;stroke-opacity:1;visibility:visible;display:block;overflow:visible"
       d="M 16,14.942758 L 16,25.5 L 33,22.70967 L 33,14.85437 L 16,14.942758 z "
       id="path2479"
       inkscape:r_cx="true"
       inkscape:r_cy="true"
       sodipodi:nodetypes="ccccc" />
  </g>
</svg>

<svg xmlns="http://www.w3.org/2000/svg" viewBox="0 0 48 48"><defs><linearGradient id="1" gradientUnits="userSpaceOnUse" gradientTransform="matrix(2.49888 0 0 1.0044-414.06-71.46)" y1="110.34" x2="0" y2="93.2"><stop stop-color="#babdb6"/><stop offset="1" stop-color="#555753"/></linearGradient><linearGradient id="3" gradientUnits="userSpaceOnUse" gradientTransform="matrix(2.62453 0 0 1.05492-436.1-76.31)" x1="174.83" y1="84.26" x2="174.75" y2="105.49"><stop/><stop offset="1" stop-color="#fff" stop-opacity=".485"/></linearGradient><linearGradient id="0" gradientUnits="userSpaceOnUse" gradientTransform="matrix(3.0002 0 0 1-67.01-.094)" x1="15.09" y1="15.292" x2="14" y2="52.51"><stop stop-color="#fff"/><stop offset="1" stop-color="#fff" stop-opacity="0"/></linearGradient><radialGradient id="2" gradientUnits="userSpaceOnUse" gradientTransform="matrix(0-1.07205 4.98026 0-490.78 212.69)" cx="169.77" cy="100.2" r="11"><stop stop-color="#f7f7f7"/><stop offset="1" stop-color="#ccd0c7"/></radialGradient></defs><g color="#000"><g fill-rule="evenodd"><path d="m14 12.829v22.15h20.996v-22.15h-20.996z" opacity=".15" stroke-width="2" stroke-linecap="square" fill="none" stroke-linejoin="round" stroke="url(#3)"/><path d="m14.5 13.406v21h20v-21h-20" fill="url(#2)"/><g fill="none" stroke-linecap="square"><path d="m14.497 13.408v21.09h19.991v-21.09h-19.991z" stroke-linejoin="round" stroke="url(#1)"/><path d="m15.499 14.406v19h18v-19h-18z" stroke="url(#0)"/></g></g><path d="m16 14.943v10.557l17-2.79v-7.855l-17 .088" opacity=".5" display="block" fill="#f7f7f7"/></g></svg>
